X:3540
T:Lark's Song, The
T:The Lark in the Morning (O'Neill No240)
O:england
R:double jig
M:6/8
L:1/8
K:G
B,|E2c BGE|D2d AFD|E2c BGE|GFE e2f|
gfe dcB|A/2B/2AG FED|EFG ABc|BGF E2:|
B|eBe gbg|dAd faf|eBe gbg|faf gbg|
faf gfe|dcB A/2B/2AG|FED EFG|ABc BGF|
E2:|


